X:6
T:Already Salted
T:(Prelude to a Margarita)
M:C|
L:1/8
C:© Paul Gitlitz 2011
R:soca
K:F
"F" (3C2c2-c2 "Bb"(3BcB- BA|"C7"GF2G "F"A4|C2c2"Gm"(3B2-B2A2|"Bb"GF2E "C7"(3DED C2|!
"F" (3C2c2-c2"Bb"(3BcB- BA|"C7"GF2G "F"A2^d2|"Gm7"dG2d "F"cF2c|"C7"(3B2A2G2 "F"F4:||!
"C7"EE2E- EGE2|"F"(3F2C2F2 A2GF|"D7"^FF2F- FGA2|"Gm"G8|!
"Bb"BG2B d2cB|"F"AF2A c2B2|"Gm7"A2Cd- "C7"dcA2|"F"F6GF|!
"C7"EC2E G2FE|"F"(3F2C2F2 A2GF|"D7"^FF2F- FGA2|"Gm"B8|!
"Bb"df2d- d2BG|"F"ce2c-c2AF|"Gm7"GA2B- "C7"A2G2|"F"F8|]
